Sources/FrostedUI/Resources/Icons.xcassets/bell32.imageset/bell-32.svg

<svg width="32" height="32" viewBox="0 0 32 32" fill="none" xmlns="http://www.w3.org/2000/svg" data-fui-icon="true">
  <g clip-path="url(#clip0_4063_725)">
    <path
      d="M16.001 -0.000366211C20.9085 -0.000248953 23.8392 2.25142 25.5303 5.04553C27.1895 7.78712 27.6344 11.0071 27.7422 13.0055C27.8024 14.1227 28.1725 15.174 28.873 15.9449L29.2891 16.403C31.407 18.733 31.446 22.2797 29.3799 24.6559C28.0851 26.1448 26.2085 26.9996 24.2354 26.9996H21.3643C21.3025 28.5908 20.651 29.8392 19.665 30.692C18.6433 31.5756 17.3056 31.9996 15.9951 31.9996C14.6846 31.9996 13.347 31.5756 12.3252 30.692C11.3391 29.8392 10.6878 28.5909 10.626 26.9996H7.76465C5.79149 26.9996 3.91492 26.1448 2.62012 24.6559C0.553874 22.2796 0.592631 18.7321 2.71094 16.402L3.12695 15.9449C3.82757 15.174 4.19748 14.1227 4.25781 13.0055C4.36579 11.0071 4.8113 7.78711 6.4707 5.04553C8.16208 2.2514 11.0932 -0.000364935 16.001 -0.000366211ZM12.127 26.9996C12.1859 28.1581 12.6545 28.9939 13.3057 29.5573C14.0182 30.1735 14.9932 30.4996 15.9951 30.4996C16.997 30.4996 17.972 30.1735 18.6846 29.5573C19.3357 28.9939 19.8044 28.158 19.8633 26.9996L12.127 26.9996ZM16.001 1.49963C11.6552 1.49963 9.19336 3.44484 7.75391 5.82288C6.28307 8.25311 5.85879 11.1815 5.75586 13.0865C5.68127 14.4678 5.21864 15.8741 4.23633 16.9547L3.82129 17.4117C2.21463 19.1791 2.18479 21.8691 3.75195 23.6715C4.76187 24.8328 6.22561 25.4996 7.76465 25.4996L24.2354 25.4996C25.7744 25.4996 27.2381 24.8329 28.248 23.6715C29.8152 21.8691 29.7853 19.179 28.1787 17.4117L27.7637 16.9547C26.7813 15.874 26.3186 14.4679 26.2441 13.0865C26.1414 11.1815 25.7176 8.25309 24.2471 5.82288C22.8079 3.44499 20.3465 1.49975 16.001 1.49963Z"
      fill="currentColor"
    />
  </g>
  <defs>
    <clipPath id="clip0_4063_725"><path fill="currentColor" d="M0 0H32V32H0z" /></clipPath>
  </defs>
</svg>

<svg xmlns="http://www.w3.org/2000/svg" width="32" height="32" fill="none" data-fui-icon="true" viewBox="0 0 32 32"><g clip-path="url(#a)"><path fill="currentColor" d="M16.001 0c4.907 0 7.838 2.251 9.53 5.046 1.659 2.741 2.103 5.961 2.211 7.96.06 1.117.43 2.168 1.131 2.939l.416.458a6.21 6.21 0 0 1 .09 8.253A6.82 6.82 0 0 1 24.236 27h-2.87c-.062 1.59-.714 2.84-1.7 3.692-1.022.884-2.36 1.308-3.67 1.308s-2.648-.424-3.67-1.308c-.986-.853-1.637-2.101-1.699-3.692H7.765a6.82 6.82 0 0 1-5.145-2.344 6.21 6.21 0 0 1 .09-8.254l.417-.457c.7-.771 1.07-1.822 1.13-2.94.109-1.998.554-5.218 2.214-7.96C8.162 2.252 11.093 0 16 0m-3.874 27c.059 1.158.527 1.994 1.179 2.557.712.617 1.687.943 2.69.943 1.001 0 1.976-.326 2.689-.943.65-.563 1.12-1.399 1.178-2.557zm3.874-25.5c-4.346 0-6.808 1.945-8.247 4.323-1.47 2.43-1.895 5.358-1.998 7.263-.075 1.382-.537 2.788-1.52 3.869l-.415.457a4.71 4.71 0 0 0-.07 6.26A5.32 5.32 0 0 0 7.766 25.5h16.47a5.32 5.32 0 0 0 4.013-1.828 4.71 4.71 0 0 0-.07-6.26l-.414-.457c-.983-1.081-1.445-2.487-1.52-3.868-.103-1.905-.526-4.834-1.997-7.264-1.44-2.378-3.9-4.323-8.246-4.323"/></g><defs><clipPath id="a"><path fill="currentColor" d="M0 0h32v32H0z"/></clipPath></defs></svg>
